assets/icons/new_podcasts.svg

<svg fill="none" height="40" viewBox="0 0 40 40" width="40" xmlns="http://www.w3.org/2000/svg"><path clip-rule="evenodd" d="m21.0834 10.9816c-1.9909 4.0385-1.9865 8.5401-.3628 12.3907 4.0431-1.057 7.6163-3.7949 9.6072-7.8334 1.9909-4.0386 1.9866-8.54018.3628-12.39079-4.043 1.05701-7.6163 3.79497-9.6072 7.83349zm-1.4351-.7075c-1.5441 3.1322-2.0036 6.5166-1.5235 9.727-1.2895-1.554-2.9194-2.8681-4.8477-3.8188-2.8595-1.4096-5.95324-1.812-8.87858-1.3439-.52479.0839-.86405.5909-.74162 1.1081.98285 4.1514 3.74231 7.8487 7.8677 9.8824 2.8319 1.396 5.8936 1.8042 8.794 1.3572.1066 1.823-.0713 3.6779-.5562 5.4982-2.9808.1563-5.742 1.1484-8.0512 2.7465-.3633.2514-.454.7497-.2026 1.113.2514.3634.7498.4541 1.1131.2026 2.2635-1.5663 5.0093-2.4839 7.9718-2.4839s5.7083.9176 7.9718 2.4839c.3633.2515.8616.1608 1.113-.2026.2515-.3633.1608-.8616-.2026-1.113-2.312-1.6-5.0772-2.5927-8.0623-2.7471.6211-2.561.6912-5.1752.2631-7.6879-.0127-.0746-.0354-.145-.0664-.2101 4.2734-1.2569 8.028-4.2291 10.1528-8.5394 2.3013-4.6681 2.1936-9.89655.1562-14.27437-.1843-.39586-.6175-.60942-1.0436-.51447-4.7132 1.04995-8.9259 4.14857-11.2272 8.81664zm-14.23624 6.0449c2.37938-.2404 4.85194.1618 7.15754 1.2984 3.4321 1.692 5.8044 4.6729 6.82 8.0748-2.3794.2404-4.852-.1618-7.1576-1.2984-3.43209-1.692-5.80434-4.6729-6.81994-8.0748z" fill="#fff" fill-rule="evenodd"/></svg>

<svg width="40" height="40" viewBox="0 0 40 40" fill="none" xmlns="http://www.w3.org/2000/svg">
<path fill-rule="evenodd" clip-rule="evenodd" d="M21.0834 10.9816C19.0925 15.0201 19.0969 19.5217 20.7206 23.3723C24.7637 22.3153 28.3369 19.5774 30.3278 15.5389C32.3187 11.5003 32.3144 6.99872 30.6906 3.14811C26.6476 4.20512 23.0743 6.94308 21.0834 10.9816ZM19.6483 10.2741C18.1042 13.4063 17.6447 16.7907 18.1248 20.0011C16.8353 18.4471 15.2054 17.133 13.2771 16.1823C10.4176 14.7727 7.32386 14.3703 4.39852 14.8384C3.87373 14.9223 3.53447 15.4293 3.6569 15.9465C4.63975 20.0979 7.39921 23.7952 11.5246 25.8289C14.3565 27.2249 17.4182 27.6331 20.3186 27.1861C20.4252 29.0091 20.2473 30.864 19.7624 32.6843C16.7816 32.8406 14.0204 33.8327 11.7112 35.4308C11.3479 35.6822 11.2572 36.1805 11.5086 36.5438C11.76 36.9072 12.2584 36.9979 12.6217 36.7464C14.8852 35.1801 17.631 34.2625 20.5935 34.2625C23.556 34.2625 26.3018 35.1801 28.5653 36.7464C28.9286 36.9979 29.4269 36.9072 29.6783 36.5438C29.9298 36.1805 29.8391 35.6822 29.4757 35.4308C27.1637 33.8308 24.3985 32.8381 21.4134 32.6837C22.0345 30.1227 22.1046 27.5085 21.6765 24.9958C21.6638 24.9212 21.6411 24.8508 21.6101 24.7857C25.8835 23.5288 29.6381 20.5566 31.7629 16.2463C34.0642 11.5782 33.9565 6.34975 31.9191 1.97193C31.7348 1.57607 31.3016 1.36251 30.8755 1.45746C26.1623 2.50741 21.9496 5.60603 19.6483 10.2741ZM5.41206 16.319C7.79144 16.0786 10.264 16.4808 12.5696 17.6174C16.0017 19.3094 18.374 22.2903 19.3896 25.6922C17.0102 25.9326 14.5376 25.5304 12.232 24.3938C8.79991 22.7018 6.42766 19.7209 5.41206 16.319Z" fill="white"/>
</svg>
